X: 111
T: Push about the Jorum
R: reel
M: C|
L: 1/8
Z: 2011 John Chambers <jc:trillian.mit.edu>
B: Abraham Mackintosh "A Collection of Strathspeys, Reels, Jigs &c.", Newcastle, after 1797, p.11
F: http://imslp.info/files/imglnks/usimg/a/a8/IMSLP80796-PMLP164326-Abraham_Mackintosh_coll.pdf
K: G
V: 1
   d | BGGG FA2c | BGBd g2fe | dGBG FAAB | EGFA G3 :|
|: d | ggfg afdd | ggfg a2d2 | ggfg afed | egfa g3 :|
V: 2 clef=bass middle=d
   z | G2B^c d2f2 | g2G2 B2c2 | B2G2 d2dB | c2d2 g2G :|
|: z | b2ag fad'c' | b2ag fad'c' | b2ag fdeB | c2d2 g2G :|

%%sep 2 1 500

